X: 100270
T: WORRELL'S HORNPIPE
R: hornpipe
B: K\"ohler's Violin Repository, v.3, 1885 p.202#3
F: http://www.archive.org/details/klersviolinrepos03rugg
Z: 2012 John Chambers <jc:trillian.mit.edu>
N: Fixed lengths of pickup to 2nd part.
M: C|
L: 1/8
K: Bb
(uFE) |\
DFB,B AcFe | dfBb agec | dABF Ggec | AgG=e (3f_ec (3AFE |
(3DFB, (3EGB (3AcF (3Bdf | GBcd efg=E | (3Ff=e (3fdB (3F_ed (3ecA | (3BdD (3EGA, B,2 :|
|: (dc) |\
AFec AFdB | geBg fdBf | edc=B cAc_B | Af=eg f2 ((3fga) |
(3bfe (3dcB (3gec (3fdB | (3ecA (3FAc (3dBb (3fdB | (3Ggf (3edc (3BAG (3FGA | (3Bdf (3bfd B2 :|

%%sep 2 1 500

